icons/file-excel-fill.svg

<svg viewBox="0 0 24 24" fill="currentColor" xmlns="http://www.w3.org/2000/svg">
    <path d="M16 2L21 7V21.0082C21 21.556 20.5551 22 20.0066 22H3.9934C3.44476 22 3 21.5447 3 21.0082V2.9918C3 2.44405 3.44495 2 3.9934 2H16ZM13.2 12L16 8H13.6L12 10.2857L10.4 8H8L10.8 12L8 16H10.4L12 13.7143L13.6 16H16L13.2 12Z"/>
</svg>

<svg xmlns="http://www.w3.org/2000/svg" viewBox="0 0 24 24">
    <g>
        <path fill="none" d="M0 0h24v24H0z"/>
        <path d="M16 2l5 5v14.008a.993.993 0 0 1-.993.992H3.993A1 1 0 0 1 3 21.008V2.992C3 2.444 3.445 2 3.993 2H16zm-2.8 10L16 8h-2.4L12 10.286 10.4 8H8l2.8 4L8 16h2.4l1.6-2.286L13.6 16H16l-2.8-4z"/>
    </g>
</svg>
